X: 10291
T: WOO'D AND MARRIED AND A
%R: slip-jig
B: "Edinburgh Repository of Music" v.1 p.29 #1
F: http://digital.nls.uk/special-collections-of-printed-music/pageturner.cfm?id=87776133
Z: 2015 John Chambers <jc:trillian.mit.edu>
M: 9/8
L: 1/8
K: F
f |\
{d}c2B ABG F3 | ABc cfA c2f |\
dcB ABG FGA | D2d de^c d2 :|\
f |\
cde fgf edc | ABc cfA c2f |
cde fgf edc | Aed de^c d2f |\
cde fgf edc | ABc cfA c2f |\
dcB ABG FGA | D2d de^c d2 |]
